public/showcase/resources/images/mono/menu.svg

<svg enable-background="new 0 0 87.318 83.411" height="83.411" viewBox="0 0 87.318 83.411" width="87.318" xmlns="http://www.w3.org/2000/svg"><g fill="#484848"><path d="m84.43 30.728h-81.542c-1.584 0-2.867 1.283-2.867 2.868v16.291c0 1.583 1.282 2.868 2.867 2.868h81.542c1.582 0 2.865-1.285 2.865-2.868v-16.291c.001-1.585-1.283-2.868-2.865-2.868z"/><path d="m84.43 57.887c.33 0 .604.27.604.604v16.291c0 .333-.273.604-.604.604h-81.542c-.333 0-.604-.271-.604-.604v-16.29c0-.335.27-.604.604-.604h81.542m0-2.264h-81.542c-1.584 0-2.867 1.283-2.867 2.868v16.291c0 1.583 1.282 2.867 2.867 2.867h81.542c1.582 0 2.865-1.284 2.865-2.867v-16.291c.001-1.585-1.283-2.868-2.865-2.868z"/><path d="m84.43 5.76h-81.542c-1.584 0-2.867 1.283-2.867 2.868v.073 16.218.072c0 1.584 1.282 2.868 2.867 2.868h81.542c1.582 0 2.865-1.284 2.865-2.868v-.072-16.217-.074c.001-1.585-1.283-2.868-2.865-2.868zm-54.394 17.925-.913-9.297-2.243 9.297h-2.966l-2.336-9.297-.818 9.297h-2.624l1.216-13.917h3.706l2.321 9.505 2.301-9.505h3.687l1.293 13.917zm13.269-11.407h-5.495c-.469 0-.76.114-.873.342-.077.178-.115.419-.115.723v2.167l5.627.191v2.204l-5.627.171v2.168c0 .48.133.773.398.874.192.076.451.115.78.115h5.304v2.186c-.634.088-2.199.178-4.697.267l-1.235.056c-.102 0-.219 0-.351 0-.133 0-.308-.008-.522-.027-.216-.019-.475-.086-.78-.201-.305-.112-.57-.267-.798-.455-.506-.455-.763-1.159-.763-2.108v-8.291c0-1.152.345-1.944 1.028-2.375.318-.191.63-.324.941-.399.31-.076.557-.115.741-.115.186 0 1.101.023 2.747.066 1.646.046 2.878.124 3.689.238v2.203zm12.567 11.407h-2.662l-5.533-8.898v8.898h-2.68v-13.917h2.699l5.514 8.991v-8.991h2.662zm12.642-6.084c0 1.989-.291 3.436-.875 4.337-.191.313-.375.571-.559.768-.188.197-.42.368-.707.513-.283.146-.527.255-.73.325-.203.068-.475.123-.818.16-.43.052-.955.075-1.578.075h-.266c-1.52 0-2.533-.158-3.043-.475-.227-.152-.492-.376-.797-.675-.303-.297-.533-.663-.684-1.094-.379-1.064-.572-2.377-.572-3.935v-7.832h2.664v7.833c0 1.217.119 2.111.359 2.679.217.509.641.831 1.275.971.279.052.682.076 1.207.076s.967-.094 1.32-.284c.746-.405 1.123-1.553 1.123-3.441v-7.834h2.68v7.833z"/></g></svg>

<?xml version="1.0" encoding="utf-8"?>
<!-- Generator: Adobe Illustrator 15.1.0, SVG Export Plug-In . SVG Version: 6.00 Build 0)  -->
<!DOCTYPE svg PUBLIC "-//W3C//DTD SVG 1.1//EN" "http://www.w3.org/Graphics/SVG/1.1/DTD/svg11.dtd">
<svg version="1.1" id="Layer_1" xmlns="http://www.w3.org/2000/svg" xmlns:xlink="http://www.w3.org/1999/xlink" x="0px" y="0px"
	 width="87.318px" height="83.411px" viewBox="0 0 87.318 83.411" enable-background="new 0 0 87.318 83.411" xml:space="preserve">
<g id="MENU">
	<path fill="#484848" d="M84.43,30.728H2.888c-1.584,0-2.867,1.283-2.867,2.868v16.291c0,1.583,1.282,2.868,2.867,2.868H84.43
		c1.582,0,2.865-1.285,2.865-2.868V33.596C87.296,32.011,86.012,30.728,84.43,30.728z"/>
	<path fill="#484848" d="M84.43,57.887c0.33,0,0.604,0.27,0.604,0.604v16.291c0,0.333-0.273,0.604-0.604,0.604H2.888
		c-0.333,0-0.604-0.271-0.604-0.604V58.492c0-0.335,0.27-0.604,0.604-0.604H84.43 M84.43,55.624H2.888
		c-1.584,0-2.867,1.283-2.867,2.868v16.291c0,1.583,1.282,2.867,2.867,2.867H84.43c1.582,0,2.865-1.284,2.865-2.867V58.492
		C87.296,56.907,86.012,55.624,84.43,55.624L84.43,55.624z"/>
	<path fill="#484848" d="M84.43,5.76H2.888c-1.584,0-2.867,1.283-2.867,2.868v0.073v16.218v0.072c0,1.584,1.282,2.868,2.867,2.868
		H84.43c1.582,0,2.865-1.284,2.865-2.868v-0.072V8.702V8.628C87.296,7.043,86.012,5.76,84.43,5.76z M30.036,23.685l-0.913-9.297
		l-2.243,9.297h-2.966l-2.336-9.297l-0.818,9.297h-2.624l1.216-13.917h3.706l2.321,9.505l2.301-9.505h3.687l1.293,13.917H30.036z
		 M43.305,12.278h-5.495c-0.469,0-0.76,0.114-0.873,0.342c-0.077,0.178-0.115,0.419-0.115,0.723v2.167l5.627,0.191v2.204
		l-5.627,0.171v2.168c0,0.48,0.133,0.773,0.398,0.874c0.192,0.076,0.451,0.115,0.78,0.115h5.304v2.186
		c-0.634,0.088-2.199,0.178-4.697,0.267l-1.235,0.056c-0.102,0-0.219,0-0.351,0c-0.133,0-0.308-0.008-0.522-0.027
		c-0.216-0.019-0.475-0.086-0.78-0.201c-0.305-0.112-0.57-0.267-0.798-0.455c-0.506-0.455-0.763-1.159-0.763-2.108v-8.291
		c0-1.152,0.345-1.944,1.028-2.375c0.318-0.191,0.63-0.324,0.941-0.399c0.31-0.076,0.557-0.115,0.741-0.115
		c0.186,0,1.101,0.023,2.747,0.066c1.646,0.046,2.878,0.124,3.689,0.238V12.278z M55.872,23.685H53.21l-5.533-8.898v8.898h-2.68
		V9.768h2.699l5.514,8.991V9.768h2.662V23.685z M68.514,17.601c0,1.989-0.291,3.436-0.875,4.337
		c-0.191,0.313-0.375,0.571-0.559,0.768c-0.188,0.197-0.42,0.368-0.707,0.513c-0.283,0.146-0.527,0.255-0.73,0.325
		c-0.203,0.068-0.475,0.123-0.818,0.16c-0.43,0.052-0.955,0.075-1.578,0.075h-0.266c-1.52,0-2.533-0.158-3.043-0.475
		c-0.227-0.152-0.492-0.376-0.797-0.675c-0.303-0.297-0.533-0.663-0.684-1.094c-0.379-1.064-0.572-2.377-0.572-3.935V9.768h2.664
		v7.833c0,1.217,0.119,2.111,0.359,2.679c0.217,0.509,0.641,0.831,1.275,0.971c0.279,0.052,0.682,0.076,1.207,0.076
		s0.967-0.094,1.32-0.284c0.746-0.405,1.123-1.553,1.123-3.441V9.768h2.68V17.601z"/>
</g>
</svg>
